docs/imgs/logo_small_white.svg

<?xml version="1.0" encoding="utf-8"?>
<svg width="210.07715px" height="162.40454px" viewBox="0 0 210.07715 162.40454" version="1.1" xmlns:xlink="http://www.w3.org/1999/xlink" xmlns="http://www.w3.org/2000/svg">
  <g id="logo">
    <g id="Group">
      <g id="Group">
        <path d="M91.4682 61.8408C76.9682 80.2408 68.3782 110.971 67.3482 107.521C59.1382 80.1808 60.1682 53.3008 82.1682 34.3408C105.078 14.5908 143.998 -6.47924 152.168 1.88076C155.788 5.56076 143.358 38.7508 141.728 58.5108C138.798 100.611 134.008 139.111 88.9282 125.511C87.7482 125.151 81.6182 167.201 72.3082 161.951C70.4682 161.281 64.7282 158.951 77.8282 120.951C77.4182 120.771 85.6482 96.3308 97.8282 75.5608C111.248 52.8408 130.708 40.8408 128.238 33.4808C124.328 21.7808 103.588 46.4708 91.4682 61.8408L91.4682 61.8408Z" id="Shape" fill="#79b729" fill-rule="evenodd" stroke="none" />
        <path d="M47.7786 51.0808C47.7573 49.4806 47.205 47.9329 46.2085 46.6808C43.7616 43.8083 39.4645 43.4258 36.5486 45.8208L2.41856 74.2608C0.883305 75.5792 0 77.5021 0 79.5258C0 81.5495 0.883305 83.4724 2.41856 84.7908L36.5486 113.231C39.4645 115.626 43.7616 115.243 46.2086 112.371C47.2071 111.12 47.7596 109.571 47.7786 107.971C47.7626 105.929 46.8209 104.006 45.2186 102.741C45.2186 102.741 25.8486 86.4908 17.4886 79.5308C25.8786 72.5308 45.2186 56.3508 45.2186 56.3508C46.8319 55.0772 47.7748 53.1362 47.7786 51.0808L47.7786 51.0808Z" id="Shape" fill="#B0BAB6" fill-rule="evenodd" stroke="none" />
        <path d="M162.299 107.211C162.321 108.809 162.869 110.355 163.859 111.611C166.309 114.484 170.61 114.867 173.529 112.471L207.659 84.0207C209.194 82.7042 210.077 80.7829 210.077 78.7607C210.077 76.7386 209.194 74.8173 207.659 73.5007L173.529 45.0607C170.611 42.659 166.307 43.0419 163.859 45.9207C162.869 47.176 162.321 48.7225 162.299 50.3207C162.309 52.3411 163.191 54.2588 164.719 55.5807C164.719 55.5807 184.199 71.8007 192.589 78.7707C184.199 85.7707 164.719 101.941 164.719 101.941C163.188 103.265 162.306 105.187 162.299 107.211L162.299 107.211Z" id="Shape" fill="#B0BAB6" fill-rule="evenodd" stroke="none" />
      </g>
    </g>
  </g>
</svg>

<svg id="logo" xmlns="http://www.w3.org/2000/svg" width="210.077" height="162.405" viewBox="0 0 210.077 162.405">
  <g id="Group">
    <g id="Group-2" data-name="Group">
      <path id="Shape" d="M91.468,61.841c-14.5,18.4-23.09,49.13-24.12,45.68-8.21-27.34-7.18-54.22,14.82-73.18,22.91-19.75,61.83-40.82,70-32.46,3.62,3.68-8.81,36.87-10.44,56.63-2.93,42.1-7.72,80.6-52.8,67-1.18-.36-7.31,41.69-16.62,36.44-1.84-.67-7.58-3,5.52-41-.41-.18,7.82-24.62,20-45.39,13.42-22.72,32.88-34.72,30.41-42.08-3.91-11.7-24.65,12.99-36.77,28.36Z" fill="#fff" fill-rule="evenodd"/>
      <path id="Shape-2" data-name="Shape" d="M47.779,51.081a7.22,7.22,0,0,0-1.57-4.4,6.92,6.92,0,0,0-9.66-.86L2.419,74.261a6.94,6.94,0,0,0,0,10.53l34.13,28.44a6.921,6.921,0,0,0,9.66-.86,7.191,7.191,0,0,0,1.57-4.4,6.73,6.73,0,0,0-2.56-5.23s-19.37-16.25-27.73-23.21c8.39-7,27.73-23.18,27.73-23.18a6.73,6.73,0,0,0,2.56-5.27Z" fill="#fff" fill-rule="evenodd"/>
      <path id="Shape-3" data-name="Shape" d="M162.3,107.211a7.269,7.269,0,0,0,1.56,4.4,6.931,6.931,0,0,0,9.67.86l34.13-28.45a6.93,6.93,0,0,0,0-10.52l-34.13-28.44a6.92,6.92,0,0,0-9.67.86,7.267,7.267,0,0,0-1.56,4.4,7,7,0,0,0,2.42,5.26s19.48,16.22,27.87,23.19c-8.39,7-27.87,23.17-27.87,23.17a7,7,0,0,0-2.42,5.27Z" fill="#fff" fill-rule="evenodd"/>
    </g>
  </g>
</svg>
